X:1
T: The Marquis of Huntly's Reel
C:
R:Reel
Q: 232
K:C
M:4/4
L:1/8
|:G|c2 ec Ad BG|cG EC A,D B,G,|CE DF EG FA|Gc Bd c2 cG|
c2 ec Ad BG|cG EC A,D B,G,|CE DF EG FA|Gc Bd c2 ce|
c2 ec gc ea|gc ec Ad BG|c2 cc gc ec|Aa gB c2 ce|
c2 ec gc ea|gc ec Ad BG|ce df ea gf|ec dB c2 c:|
